X:352
T:Reel 352
M:4/4
K:Ddor
L:1/8
AG|:FEFD ECCE|DEFG AddB|cEGE CDEG||Addc Adde:||2DEFG A2cB|Addc dedc|AGAB cAGE|Adde f2ed|cAGE EDD2|Addc AccG|Adde fedc|e2ed cded|cAGE EDD2|
